P3
# Small source texture used by the sample Sponza materials.
8 8
255
232 216 180   232 216 180   58 78 112   58 78 112   232 216 180   232 216 180   58 78 112   58 78 112
232 216 180   232 216 180   58 78 112   58 78 112   232 216 180   232 216 180   58 78 112   58 78 112
58 78 112   58 78 112   232 216 180   232 216 180   58 78 112   58 78 112   232 216 180   232 216 180
58 78 112   58 78 112   232 216 180   232 216 180   58 78 112   58 78 112   232 216 180   232 216 180
232 216 180   232 216 180   58 78 112   58 78 112   232 216 180   232 216 180   58 78 112   58 78 112
232 216 180   232 216 180   58 78 112   58 78 112   232 216 180   232 216 180   58 78 112   58 78 112
58 78 112   58 78 112   232 216 180   232 216 180   58 78 112   58 78 112   232 216 180   232 216 180
58 78 112   58 78 112   232 216 180   232 216 180   58 78 112   58 78 112   232 216 180   232 216 180
